X:1
T:Resting in Jesus’ Arms
T:Resting in Jesus’ Arms
T:Scott Werdebaugh, 2018
T:Ruth Adalyn Hearn Evilsizer, 1899
T:Music © 2018 Scott Werdebaugh &amp; New Heart Music - Copy &amp; use freely for Christian worship or devotions. All other rights reserved.
T:Music © 2018 Scott Werdebaugh &amp; New Heart Music - Copy &amp; use freely for Christian worship or devotions. All other rights reserved.
C:Scott Werdebaugh, 2018
Z:Music © 2018 Scott Werdebaugh & New Heart Music - Copy & use freely for Christian
Z:worship or devotions. All other rights reserved.
%%score ( 1 2 ) ( 3 4 )
L:1/8
Q:1/4=136
M:2/4
K:F
V:1 treble 
V:2 treble 
V:3 bass 
V:4 bass 
V:1
"^With a sense of quiet peace and trust" [FA]3 [FA] | [FA]2 [EG]2 | [CF]4 | C3 C | [CF]4 | [EG]4 | %6
w: 1.~In the|arms of|Je-|sus I|sweet-|ly|
w: 2.~In the|arms of|Je-|sus my|cares|de-|
w: 3.~In the|arms of|Je-|sus ’twas|love|di-|
w: 4.~In the|arms of|Je-|sus I’ll|sleep|in|
 [FA]4- | [FA]2 z2 | [FA]3 [FA] | [FA]3 [EG] | [CF]4 | [FA]3 [FA] | [Fc]4 | [FA]4 | [EG]4- | %15
w: rest,||And my|soul re-|pos-|es up-|on|His|breast;|
w: part,||For He|shares my|sor-|row and|cheers|my|heart;|
w: vine||Made this|bless- èd|shel-|ter of|safe-|ty|mine;|
w: peace||When the|cares and|tri-|als of|earth-|life|cease;|
 [EG]2 z2 | [FA]3 [FA] | [FA]3 [EG] | [CF]4 | C3 C | [CF]4 | [EG]4 | [FA]4- | [FA]2 z2 | [Ac]4 | %25
w: |As a|ten- der|mo-|ther her|child|doth|hold,||I|
w: |All my|hea- vy|bur-|dens He|bears|a-|way,||For|
w: |And I|ask no|sweet-|er a-|bid-|ing|place||Than|
w: |He will|bear me|up-|ward on|wings|of|love,||To|
 [GB]4 | [FA]4 | [CF]3 [DB] | [FA]4 | [EG]4 | [CF]4- | [CF]2 z2 ||"^Refrain" [EG]4 | [EG]4 | %34
w: am|shel-|tered in|Je-|sus’|fold.||||
w: I|take|them to|Him|each|day.||||
w: in|Je-|sus’, my|Lord’s|em-|brace.||||
w: those|man-|sions pre-|pared|a-|bove.||||
 [FA]2 [EG]2- | [EG]4 | [CF]4 | [GB]2 [FA]2 | [EG]4- | [EG]2 z2 | [Ac]4 | [GB]4 | [FA]4 | %43
w: |||||||||
w: |||||||||
w: |||||||||
w: |||||||||
 [CF]3 [CF] | [GB]4 | [FA]4 | [EG]4- | [EG]2 z2 | [FA]2 [FA]2 | [FA]3 [EG] | [CF]4 | [FA]4 | %52
w: |||||||||
w: |||||||||
w: |||||||||
w: |||||||||
 [Ac]4 | [GB]2 [FA]2 | [EG]4- | [EG]2 z2 | [Ac]4 | [GB]4 | [FA]2 [EG]2 | ([CF]2 [DB]2) | [FA]4 | %61
w: |||||||||
w: |||||||||
w: |||||||||
w: |||||||||
 [EG]4 | [CF]4- | !breath![CF]2 z2"^Play 4 times" :| %64
w: |||
w: |||
w: |||
w: |||
V:2
 x4 | x4 | x4 | C3 C | x4 | x4 | x4 | x4 | x4 | x4 | x4 | x4 | x4 | x4 | x4 | x4 | x4 | x4 | x4 | %19
 C3 C | x4 | x4 | x4 | x4 | x4 | x4 | x4 | x4 | x4 | x4 | x4 | x4 || x4 | x4 | x4 | x4 | x4 | x4 | %38
 x4 | x4 | x4 | x4 | x4 | x4 | x4 | x4 | x4 | x4 | x4 | x4 | x4 | x4 | x4 | x4 | x4 | x4 | x4 | %57
 x4 | x4 | x4 | x4 | x4 | x4 | x4 :| %64
V:3
 [F,C]3 [F,C] | [F,C]2 [C,B,]2 | [F,A,]4 | [F,A,]3 [C,E,] | [F,A,]4 | [C,C]4 | [F,C]4- | %7
w: ~ ~|~ ~|~|~ ~|~|~|~|
 [F,C]2 z2 | [F,C]3 [F,C] | [F,C]3 [C,B,] | [F,A,]4 | [F,C]3 [F,C] | [F,A,]4 | [F,C]4 | [C,C]4- | %15
w: |~ ~|~ ~|~|~ ~|~|~|~|
 [C,C]2 z2 | [F,C]3 [F,C] | [F,C]3 [C,B,] | [F,A,]4 | [F,A,]3 [C,E,] | [F,A,]4 | [C,C]4 | [F,C]4- | %23
w: |~ ~|~ ~|~|~ ~|~|~|~|
 [F,C]2 z2 | [F,C]4 | [C,C]4 | [F,C]4 | [F,A,]3 [B,,F,] | [F,C]4 | (C2 B,2) | [F,A,]4- | %31
w: |~|~|~|~ ~|~|~ *|~|
 [F,A,]2 z2 || [C,C]4 | [C,C]4 | [F,C]2 [C,C]2- | [C,C]4 | [F,A,]4 | [CE]2 [F,C]2 | [C,C]4- | %39
w: |I|am|rest- ing||in|Je- sus’|arms,|
 [C,C]2 z2 | [F,C]4 | [C,C]4 | [F,C]4 | [F,A,]3 [F,A,] | [C,C]4 | [F,C]4 | [C,C]4- | [C,C]2 z2 | %48
w: |And|I|fear|not the|world’s|a-|larms;||
 [F,C]2 [F,C]2 | [F,C]3 [C,B,] | [F,A,]4 | [F,C]4 | [F,C]4 | [C,C]2 [F,C]2 | [C,C]4- | [C,C]2 z2 | %56
w: Tho’ its|storms as-|sail|me|on|ev- ery|side,||
 [F,C]4 | [C,C]4 | [F,C]2 [C,B,]2 | ([F,A,]2 [B,,F,]2) | [F,C]4 | (C2 B,2) | [F,A,]4- | %63
w: In|this|ref- uge|my *|soul|shall *|hide.|
 !breath![F,A,]2 z2"^Play 4 times" :| %64
w: |
V:4
 x4 | x4 | x4 | x4 | x4 | x4 | x4 | x4 | x4 | x4 | x4 | x4 | x4 | x4 | x4 | x4 | x4 | x4 | x4 | %19
 x4 | x4 | x4 | x4 | x4 | x4 | x4 | x4 | x4 | x4 | C,4 | x4 | x4 || x4 | x4 | x4 | x4 | x4 | x4 | %38
 x4 | x4 | x4 | x4 | x4 | x4 | x4 | x4 | x4 | x4 | x4 | x4 | x4 | x4 | x4 | x4 | x4 | x4 | x4 | %57
 x4 | x4 | x4 | x4 | C,4 | x4 | x4 :| %64

